mobile/24/svg/notification-24.svg

<svg width="24" height="24" viewBox="0 0 24 24" fill="none" xmlns="http://www.w3.org/2000/svg">
<path d="M18 8H6V6.25H18V8Z" fill="black"/>
<path d="M6 12H13V10.25H6V12Z" fill="black"/>
<path fill-rule="evenodd" clip-rule="evenodd" d="M2 4.5C2 3.11975 3.11975 2 4.5 2H19.5C20.8802 2 22 3.11975 22 4.5V14.5C22 15.8802 20.8802 17 19.5 17H18V21.125C18 21.4789 17.7868 21.798 17.4598 21.9334C17.1329 22.0688 16.7565 21.994 16.5063 21.7437L11.7626 17H4.5C3.11975 17 2 15.8802 2 14.5V4.5ZM4.5 3.75C4.08625 3.75 3.75 4.08625 3.75 4.5V14.5C3.75 14.9138 4.08625 15.25 4.5 15.25H12.125C12.3571 15.25 12.5796 15.3422 12.7437 15.5063L16.25 19.0126V16.125C16.25 15.6418 16.6418 15.25 17.125 15.25H19.5C19.9138 15.25 20.25 14.9138 20.25 14.5V4.5C20.25 4.08625 19.9138 3.75 19.5 3.75H4.5Z" fill="black"/>
</svg>

<svg width="24" height="24" fill="none" xmlns="http://www.w3.org/2000/svg"><path d="M18 8H6V6.25h12V8zM6 12h7v-1.75H6V12z" fill="#000"/><path fill-rule="evenodd" clip-rule="evenodd" d="M2 4.5A2.5 2.5 0 0 1 4.5 2h15A2.5 2.5 0 0 1 22 4.5v10a2.5 2.5 0 0 1-2.5 2.5H18v4.125a.875.875 0 0 1-1.494.619L11.763 17H4.5A2.5 2.5 0 0 1 2 14.5v-10zm2.5-.75a.75.75 0 0 0-.75.75v10c0 .414.336.75.75.75h7.625c.232 0 .455.092.619.256l3.506 3.507v-2.888c0-.483.392-.875.875-.875H19.5a.75.75 0 0 0 .75-.75v-10a.75.75 0 0 0-.75-.75h-15z" fill="#000"/></svg>
